img/icons/linkedin.svg

<?xml version="1.0" encoding="UTF-8"?>
<svg width="21px" height="21px" viewBox="0 0 21 21" version="1.1" xmlns="http://www.w3.org/2000/svg" xmlns:xlink="http://www.w3.org/1999/xlink">
    <!-- Generator: Sketch 48.2 (47327) - http://www.bohemiancoding.com/sketch -->
    <title>002-linkedin</title>
    <desc>Created with Sketch.</desc>
    <defs></defs>
    <g id="Footer" stroke="none" stroke-width="1" fill="none" fill-rule="evenodd" transform="translate(-1269.000000, -142.000000)" opacity="0.5">
        <g fill="#FFFFFF" fill-rule="nonzero" id="Social-media">
            <g transform="translate(1083.000000, 142.000000)">
                <g id="002-linkedin" transform="translate(186.000000, 0.000000)">
                    <path d="M4.85327496,6.70755421 L0.667661593,6.70755421 C0.481897382,6.70755421 0.331375911,6.85814294 0.331375911,7.04383989 L0.331375911,20.4904246 C0.331375911,20.6761889 0.481897382,20.8267103 0.667661593,20.8267103 L4.85327496,20.8267103 C5.03903917,20.8267103 5.18956064,20.6761889 5.18956064,20.4904246 L5.18956064,7.04383989 C5.18956064,6.85814294 5.03903917,6.70755421 4.85327496,6.70755421 Z" id="XMLID_802_"></path>
                    <path d="M2.76198156,0.0229346835 C1.23901097,0.0229346835 0,1.26060051 0,2.78188967 C0,4.30385141 1.23901097,5.54198804 2.76198156,5.54198804 C4.28374153,5.54198804 5.52174364,4.30378415 5.52174364,2.78188967 C5.52181089,1.26060051 4.28374153,0.0229346835 2.76198156,0.0229346835 Z" id="XMLID_803_"></path>
                    <path d="M15.4996761,6.3733535 C13.818584,6.3733535 12.5758739,7.09603143 11.8221231,7.91717381 L11.8221231,7.04383989 C11.8221231,6.85814294 11.6716017,6.70755421 11.4858375,6.70755421 L7.47737939,6.70755421 C7.29161518,6.70755421 7.14109371,6.85814294 7.14109371,7.04383989 L7.14109371,20.4904246 C7.14109371,20.6761889 7.29161518,20.8267103 7.47737939,20.8267103 L11.6538458,20.8267103 C11.83961,20.8267103 11.9901315,20.6761889 11.9901315,20.4904246 L11.9901315,13.8374832 C11.9901315,11.5956011 12.5990776,10.7221999 14.1618644,10.7221999 C15.8638735,10.7221999 15.9991276,12.122359 15.9991276,13.9528292 L15.9991276,20.4904919 C15.9991276,20.6762561 16.1496491,20.8267776 16.3354133,20.8267776 L20.5134266,20.8267776 C20.6991908,20.8267776 20.8497123,20.6762561 20.8497123,20.4904919 L20.8497123,13.1148053 C20.8497123,9.78120534 20.2140651,6.3733535 15.4996761,6.3733535 Z" id="XMLID_804_"></path>
                </g>
            </g>
        </g>
    </g>
</svg>

<svg xmlns="http://www.w3.org/2000/svg" width="21" height="21" viewBox="0 0 21 21"><path fill="#FFF" d="M4.853 6.708H.668a.336.336 0 0 0-.337.336V20.49c0 .186.15.337.337.337h4.185c.186 0 .337-.15.337-.337V7.044a.336.336 0 0 0-.337-.336zM2.762.023A2.764 2.764 0 0 0 0 2.782a2.764 2.764 0 0 0 2.762 2.76 2.763 2.763 0 0 0 2.76-2.76 2.762 2.762 0 0 0-2.76-2.76zM15.5 6.373c-1.681 0-2.924.723-3.678 1.544v-.873a.336.336 0 0 0-.336-.336H7.477a.336.336 0 0 0-.336.336V20.49c0 .186.15.337.336.337h4.177c.186 0 .336-.15.336-.337v-6.653c0-2.241.61-3.115 2.172-3.115 1.702 0 1.837 1.4 1.837 3.23v6.538c0 .186.15.337.336.337h4.178c.186 0 .337-.15.337-.337v-7.375c0-3.334-.636-6.742-5.35-6.742z" opacity=".5"/></svg>
